src/categories-icons-sprite/categories/svg-cat-home-light.svg

<svg width="34" height="34" viewBox="0 0 34 34" fill="none" xmlns="http://www.w3.org/2000/svg">
<path class="p-FDBF00" d="M17.9961 0.996094H16.0039V9.03125H17.9961V0.996094Z" fill="#76B7E2"/>
<path class="p-FDBF00" d="M29.9492 24.9688C29.9492 28.8137 26.8215 31.9414 22.9766 31.9414C20.4464 31.9414 18.2152 30.5867 17 28.5547C15.7848 30.5868 13.5536 31.9414 11.0234 31.9414C7.17852 31.9414 4.05078 28.8137 4.05078 24.9688H6.04297C6.04297 27.718 8.27422 29.9492 11.0234 29.9492C13.7727 29.9492 16.0039 27.718 16.0039 24.9688H17.9961C17.9961 27.718 20.2273 29.9492 22.9766 29.9492C25.7258 29.9492 27.957 27.718 27.957 24.9688H29.9492Z" fill="#76B7E2"/>
<path class="p-FDBF00" d="M17.9961 20.9844H16.0039V34H17.9961V20.9844Z" fill="#76B7E2"/>
<path class="p-FF9100" d="M17.9961 0.996094H17V9.03125H17.9961V0.996094Z" fill="#4D98CB"/>
<path class="p-FF9100" d="M29.9492 24.9688C29.9492 28.8137 26.8215 31.9414 22.9766 31.9414C20.4464 31.9414 18.2152 30.5867 17 28.5547V24.9688H17.9961C17.9961 27.718 20.2273 29.9492 22.9766 29.9492C25.7258 29.9492 27.957 27.718 27.957 24.9688H29.9492Z" fill="#4D98CB"/>
<path class="p-FF9100" d="M17.9961 20.9844H17V34H17.9961V20.9844Z" fill="#4D98CB"/>
<path class="p-FDBF00" d="M14.0117 17.0771V20.0654C14.0117 21.7189 15.3464 23.0537 17 23.0537C18.6536 23.0537 19.9883 21.7189 19.9883 20.0654V17.0771H14.0117Z" fill="#76B7E2"/>
<path class="p-FDBF00" d="M5.04688 25.9648C3.39907 25.9648 2.05859 23.7054 2.05859 22.0576V19.0693H8.03516V22.0576C8.03516 23.7054 6.69468 25.9648 5.04688 25.9648Z" fill="#76B7E2"/>
<path class="p-FF9100" d="M28.9531 25.9648C27.3053 25.9648 25.9648 23.7054 25.9648 22.0576V19.0693H31.9414V22.0576C31.9414 23.7054 30.6009 25.9648 28.9531 25.9648Z" fill="#4D98CB"/>
<path class="p-FDBF00" d="M4.29396 16.0039H5.96248L7.45151 14.0117L10.1118 10.9463H0L2.64224 14.0117L4.29396 16.0039Z" fill="#76B7E2"/>
<path class="p-FDBF00" d="M22.0672 8.9541L19.411 12.0196L18.8133 14.0117H16.3828C15.5661 13.0554 14.7292 12.0992 14.5898 12.0196C14.3109 11.8402 11.9336 8.9541 11.9336 8.9541H22.0672Z" fill="#76B7E2"/>
<path class="p-FF9100" d="M27.8201 16.0039H30.1303C30.7309 15.0485 31.3582 14.0117 31.3582 14.0117L34.0005 10.9463H23.8887L26.549 14.0117C26.549 14.0117 27.1836 15.0485 27.8201 16.0039Z" fill="#4D98CB"/>
<path class="p-FF9100" d="M17 17.0771H19.9883V20.0654C19.9883 21.7189 18.6536 23.0537 17 23.0537V17.0771Z" fill="#4D98CB"/>
<path class="p-FF9100" d="M17 8.9541H22.0668L19.4106 12.0196L18.8128 14.0117H17V8.9541Z" fill="#4D98CB"/>
<path class="p-FDBF00" d="M23.9727 0H10.0273V1.99219H23.9727V0Z" fill="#76B7E2"/>
<path class="p-FF9100" d="M23.9727 0H17V1.99219H23.9727V0Z" fill="#4D98CB"/>
<path class="p-FFDA2D" d="M6.21416 21.9805H3.87959C1.7765 21.9805 0.0664062 20.2704 0.0664062 18.1673C0.0664062 16.2566 1.26205 15.3919 2.64224 14.0117H7.45151C8.8317 15.3919 10.0273 16.2566 10.0273 18.1673C10.0273 20.2704 8.31725 21.9805 6.21416 21.9805Z" fill="#A1D1FD"/>
<path class="p-FFDA2D" d="M19.4106 12.0195H14.5895C13.203 13.406 12.0195 14.256 12.0195 16.1831C12.0195 18.275 13.7328 19.9883 15.8245 19.9883H18.1755C20.2672 19.9883 21.9805 18.275 21.9805 16.1831C21.9805 14.256 20.797 13.406 19.4106 12.0195Z" fill="#A1D1FD"/>
<path class="p-FDBF00" d="M30.1204 21.9805H27.7858C25.6827 21.9805 23.9727 20.2704 23.9727 18.1673C23.9727 16.2566 25.1683 15.3919 26.5485 14.0117H31.3578C32.7379 15.3919 33.9336 16.2566 33.9336 18.1673C33.9336 20.2704 32.2235 21.9805 30.1204 21.9805Z" fill="#5FBEFF"/>
<path class="p-FDBF00" d="M18.1755 19.9883H17V12.0195H19.4106C20.797 13.406 21.9805 14.256 21.9805 16.1831C21.9805 18.275 20.2672 19.9883 18.1755 19.9883Z" fill="#5FBEFF"/>
</svg>

<svg width="34" height="34" fill="none" xmlns="http://www.w3.org/2000/svg"><path class="p-FDBF00" d="M17.996.996h-1.992v8.035h1.992V.996zM29.95 24.969a6.98 6.98 0 01-6.973 6.972A6.962 6.962 0 0117 28.555a6.962 6.962 0 01-5.977 3.386 6.98 6.98 0 01-6.972-6.972h1.992c0 2.749 2.231 4.98 4.98 4.98 2.75 0 4.98-2.231 4.98-4.98h1.993c0 2.749 2.231 4.98 4.98 4.98 2.75 0 4.981-2.231 4.981-4.98h1.992z" fill="#76B7E2"/><path class="p-FDBF00" d="M17.996 20.984h-1.992V34h1.992V20.984z" fill="#76B7E2"/><path class="p-FF9100" d="M17.996.996H17v8.035h.996V.996zM29.95 24.969a6.98 6.98 0 01-6.973 6.972A6.962 6.962 0 0117 28.555v-3.586h.996c0 2.749 2.231 4.98 4.98 4.98 2.75 0 4.981-2.231 4.981-4.98h1.992z" fill="#4D98CB"/><path class="p-FF9100" d="M17.996 20.984H17V34h.996V20.984z" fill="#4D98CB"/><path class="p-FDBF00" d="M14.012 17.077v2.988A2.984 2.984 0 0017 23.054a2.984 2.984 0 002.988-2.989v-2.988h-5.976zM5.047 25.965c-1.648 0-2.988-2.26-2.988-3.907v-2.989h5.976v2.989c0 1.647-1.34 3.907-2.988 3.907z" fill="#76B7E2"/><path class="p-FF9100" d="M28.953 25.965c-1.648 0-2.988-2.26-2.988-3.907v-2.989h5.976v2.989c0 1.647-1.34 3.907-2.988 3.907z" fill="#4D98CB"/><path class="p-FDBF00" d="M4.294 16.004h1.668l1.49-1.992 2.66-3.066H0l2.642 3.066 1.652 1.992zM22.067 8.954l-2.656 3.066-.598 1.992h-2.43c-.817-.957-1.654-1.913-1.793-1.992-.28-.18-2.656-3.066-2.656-3.066h10.133z" fill="#76B7E2"/><path class="p-FF9100" d="M27.82 16.004h2.31c.6-.956 1.228-1.992 1.228-1.992l2.643-3.066H23.889l2.66 3.066s.635 1.037 1.271 1.992zM17 17.077h2.988v2.988A2.984 2.984 0 0117 23.054v-5.977zM17 8.954h5.067L19.41 12.02l-.598 1.992H17V8.954z" fill="#4D98CB"/><path class="p-FDBF00" d="M23.973 0H10.027v1.992h13.946V0z" fill="#76B7E2"/><path class="p-FF9100" d="M23.973 0H17v1.992h6.973V0z" fill="#4D98CB"/><path class="p-FFDA2D" d="M6.214 21.98H3.88a3.817 3.817 0 01-3.814-3.813c0-1.91 1.196-2.775 2.576-4.155h4.81c1.38 1.38 2.575 2.245 2.575 4.155a3.817 3.817 0 01-3.813 3.813zM19.41 12.02h-4.82c-1.387 1.386-2.57 2.236-2.57 4.163a3.818 3.818 0 003.805 3.805h2.35a3.818 3.818 0 003.805-3.805c0-1.927-1.183-2.777-2.57-4.163z" fill="#A1D1FD"/><path class="p-FDBF00" d="M30.12 21.98h-2.334a3.817 3.817 0 01-3.813-3.813c0-1.91 1.195-2.775 2.576-4.155h4.809c1.38 1.38 2.576 2.245 2.576 4.155a3.817 3.817 0 01-3.814 3.813zM18.175 19.988H17V12.02h2.41c1.387 1.386 2.57 2.236 2.57 4.163a3.818 3.818 0 01-3.805 3.805z" fill="#5FBEFF"/></svg>
